X:1
T:Lisa lan (circumflex on the a in lan)
B:Singing Together, Spring 1967, BBC Publications
F:http://www.folkinfo.org/songs
M:3/4     %Meter
L:1/8     %
K:Eb
E G B |B3/2A/ F2 EE |E3 E GB |_d3 e dc | B3
w:How long a-go it seems Li-sa lan, Since we those care-free mo-ments passed;
E GB |_d3 e dc |B3 E GB |B3/2A/ F2 EE | E3  |]
w: But still their me-mories with me last, Like frag-ments from old dreams Li-sa lan.
